X: 394
T:L'amye a tous
N: Derived from Jos2913-Lamye_a_tous.krn
C: Josquin des Prez
%%abc-version 2.0
%%abcx-abcm2ps-target-version 5.9.1 (29 Sep 2008)
%%abc-creator hum2abc beta
%%abcx-conversion-date 2019/02/12 16:15:55
%%abc-edited-by Jesse Rodin
%%abc-edited-by Will Watson 13/12/2011
%%abcx-initial-encoding-date 2011/12/13/
%%humdrum-veritas 3153041893
%%humdrum-veritas-data 244291515
%%linebreak <none>
%%barnumbers 0
L: 1/4
M: 2/1
Q: 1/2=120
V: 1 clef=treble
V: 2 clef=treble-8
V: 3 clef=treble-8
V: 4 clef=treble-8
V: 5 clef=bass
K: F
[V:1] z8 | 
[V:2] A8 | 
[V:3] d8- | 
[V:4] z4F4 | 
[V:5] D,8 | 
[V:1] G8 | 
[V:2] G4G4 | 
[V:3] d8 | 
[V:4] B4B4 | 
[V:5] z8 | 
[V:1] F4F4 | 
[V:2] A8 | 
[V:3] d8 | 
[V:4] A4F4 | 
[V:5] D,8 | 
[V:1] G8 | 
[V:2] z8 | 
[V:3] e8 | 
[V:4] c8 | 
[V:5] C,4C,4 | 
[V:1] z4A4 | 
[V:2] A8 | 
[V:3] d8- | 
[V:4] F8 | 
[V:5] D,4D,4 | 
[V:1] B6B2 | 
[V:2] G4G4 | 
[V:3] d8 | 
[V:4] z2D2D4 | 
[V:5] G,,4B,,4 | 
[V:1] c4c4 | 
[V:2] A6G2 | 
[V:3] c8 | 
[V:4] F4E4 | 
[V:5] A,,8 | 
[V:1] A3GAGFE | 
[V:2] F3ED2d2- | 
[V:3] d4A4 | 
[V:4] D4F4- | 
[V:5] z4D,4 | 
[V:1] D4z4 | 
[V:2] d2f2edd2- | 
[V:3] B8 | 
[V:4] F2F2G2G2 | 
[V:5] B,,4G,,4 | 
[V:1] E4F4- | 
[V:2] d2^c2d4 | 
[V:3] A8- | 
[V:4] E4D4 | 
[V:5] A,,4D,4 | 
[V:1] F4A4 | 
[V:2] z8 | 
[V:3] A8 | 
[V:4] z2d2c2d2 | 
[V:5] F,6F,2 | 
[V:1] G8 | 
[V:2] z4e4 | 
[V:3] d4c4 | 
[V:4] B3AG2G2 | 
[V:5] G,2G,2E,4 | 
[V:1] z4A4 | 
[V:2] f6f2 | 
[V:3] d6c2 | 
[V:4] A4D4 | 
[V:5] D,4z4 | 
[V:1] c6c2 | 
[V:2] f2f2e4 | 
[V:3] A8 | 
[V:4] z8 | 
[V:5] z8 | 
[V:1] d2d2B4 | 
[V:2] d4d4 | 
[V:3] B8 | 
[V:4] z8 | 
[V:5] G,4G,2G,2 | 
[V:1] A4z2G2- | 
[V:2] f2f2e2e2 | 
[V:3] c8 | 
[V:4] z4G4 | 
[V:5] F,3E,C,2C,2 | 
[V:1] GFDEFGA2 | 
[V:2] d2g2fef2- | 
[V:3] d8- | 
[V:4] B2B2A2F2 | 
[V:5] G,4D,4 | 
[V:1] B2G4^F2 | 
[V:2] fed3cA2 | 
[V:3] d8 | 
[V:4] B4A4 | 
[V:5] B,,3C,D,4 | 
[V:1] G4z4 | 
[V:2] B3cd4 | 
[V:3] G8 | 
[V:4] z4B4 | 
[V:5] z2B,4A,G, | 
[V:1] z2A2A2A2 | 
[V:2] z8 | 
[V:3] F8 | 
[V:4] c2c2d4 | 
[V:5] A,4D,4 | 
[V:1] G4E4- | 
[V:2] B4c2c2 | 
[V:3] G8 | 
[V:4] d4z4 | 
[V:5] z4C,4 | 
[V:1] E2F2G2G2 | 
[V:2] d4d4 | 
[V:3] B8 | 
[V:4] z4B4 | 
[V:5] z4G,4 | 
[V:1] A4A4 | 
[V:2] f4f2f2 | 
[V:3] A8- | 
[V:4] c2c2d4 | 
[V:5] F,3E,D,4- | 
[V:1] z8 | 
[V:2] f2f2d4 | 
[V:3] A8 | 
[V:4] d2D2F2F2 | 
[V:5] D,4D,4 | 
[V:1] z8 | 
[V:2] B6G2 | 
[V:3] G8- | 
[V:4] _E2D2_E4- | 
[V:5] G,,4C,4 | 
[V:1] z8 | 
[V:2] c2c2d2d2 | 
[V:3] G8 | 
[V:4] E4D4 | 
[V:5] C,2C,4B,,2 | 
[V:1] z4z2D2 | 
[V:2] _e4d4 | 
[V:3] G8 | 
[V:4] z2G2B2B2 | 
[V:5] C,4G,,4 | 
[V:1] G2G2A2A2 | 
[V:2] z2d2f2f2 | 
[V:3] G4D4 | 
[V:4] B4A2d2 | 
[V:5] z8 | 
[V:1] B4A4 | 
[V:2] g2g2e4 | 
[V:3] G4A4 | 
[V:4] d2d2c2c2 | 
[V:5] z8 | 
[V:1] z8 | 
[V:2] d8 | 
[V:3] F8 | 
[V:4] B4A4 | 
[V:5] B,,4D,4 | 
[V:1] z8 | 
[V:2] G3ABcd2- | 
[V:3] B6A2 | 
[V:4] z8 | 
[V:5] _E,2G,4F,2 | 
[V:1] z8 | 
[V:2] d2c4=B2 | 
[V:3] G4F4 | 
[V:4] z8 | 
[V:5] _E,2C,2D,4 | 
[V:1] z4G4 | 
[V:2] c8 | 
[V:3] E8 | 
[V:4] G6G2 | 
[V:5] C,8 | 
[V:1] F4F4 | 
[V:2] z8 | 
[V:3] D8- | 
[V:4] B4A4 | 
[V:5] z8 | 
[V:1] B6AG | 
[V:2] z4d4 | 
[V:3] D8 | 
[V:4] z8 | 
[V:5] G,,6G,,2 | 
[V:1] F3GABc2- | 
[V:2] d4c4 | 
[V:3] z8 | 
[V:4] z4E4 | 
[V:5] B,,4A,,4 | 
[V:1] c2BAB4 | 
[V:2] d4z4 | 
[V:3] d8- | 
[V:4] G2G2G2G2 | 
[V:5] z2G,,2G,,2G,,2 | 
[V:1] A8- | 
[V:2] z8 | 
[V:3] d4c4 | 
[V:4] F4E4 | 
[V:5] D,4A,,4 | 
[V:1] A8 | 
[V:2] z4A4 | 
[V:3] d8 | 
[V:4] z2D2F4 | 
[V:5] D,2D,2D,2D,2 | 
[V:1] z8 | 
[V:2] c2c2c2c2 | 
[V:3] e8 | 
[V:4] G4A4 | 
[V:5] C,4A,,4 | 
[V:1] D4D2D2 | 
[V:2] B4A4 | 
[V:3] f8- | 
[V:4] z4D4 | 
[V:5] z8 | 
[V:1] A2A2c3c | 
[V:2] z2f2g3f | 
[V:3] f4e4 | 
[V:4] D2D2G4 | 
[V:5] z4C,4 | 
[V:1] c2c2B4 | 
[V:2] e2dcd4 | 
[V:3] g6f2 | 
[V:4] z8 | 
[V:5] C,2C,2G,4 | 
[V:1] A4z4 | 
[V:2] c3BG2g2- | 
[V:3] e4d4- | 
[V:4] A4B2B2 | 
[V:5] z8 | 
[V:1] z8 | 
[V:2] g2f4e2 | 
[V:3] d4B4 | 
[V:4] A2A2G2B2- | 
[V:5] D,4G,2G,2 | 
[V:1] z2F2G2G2 | 
[V:2] f4z4 | 
[V:3] c8 | 
[V:4] B2A4G2 | 
[V:5] F,2F,2_E,4 | 
[V:1] F2B4A2- | 
[V:2] f4f4- | 
[V:3] d6c2 | 
[V:4] A2DEFGAB | 
[V:5] D,2B,,C,D,E,F,2- | 
[V:1] A2G4^F2 | 
[V:2] f2e2d4 | 
[V:3] A8 | 
[V:4] c4A2d2- | 
[V:5] F,2C,2D,4 | 
[V:1] G8 | 
[V:2] z2d2d2d2 | 
[V:3] G8 | 
[V:4] dcBAG2D2 | 
[V:5] G,,8 | 
[V:1] z8 | 
[V:2] f4d4 | 
[V:3] A4B4 | 
[V:4] D2D2G4 | 
[V:5] z8 | 
[V:1] z8 | 
[V:2] d2d2B4- | 
[V:3] G8 | 
[V:4] z8 | 
[V:5] z2G,,2G,,2G,,2 | 
[V:1] z8 | 
[V:2] B2B2B4 | 
[V:3] F4G4 | 
[V:4] d4d2d2 | 
[V:5] B,,4z4 | 
[V:1] A4A2A2 | 
[V:2] A4z4 | 
[V:3] D8 | 
[V:4] f3ff2f2 | 
[V:5] z8 | 
[V:1] B8 | 
[V:2] z2d2d2d2 | 
[V:3] G8 | 
[V:4] d2d2B3c | 
[V:5] z8 | 
[V:1] z2B2B2B2 | 
[V:2] f8 | 
[V:3] F8- | 
[V:4] d4z2d2 | 
[V:5] B,,4B,,3C, | 
[V:1] A4A2c2- | 
[V:2] z4z2f2 | 
[V:3] F8- | 
[V:4] d2d2c2A2 | 
[V:5] D,4z4 | 
[V:1] cBAGF4 | 
[V:2] f2f2d2d2 | 
[V:3] F8 | 
[V:4] c2d2A4 | 
[V:5] z2D,2D,2D,2 | 
[V:1] z2F3GA2- | 
[V:2] c3Bc4 | 
[V:3] A8- | 
[V:4] z8 | 
[V:5] F,3F,F,2F,2 | 
[V:1] AGFED2F2- | 
[V:2] d8 | 
[V:3] A4B4 | 
[V:4] z8 | 
[V:5] D,2D,2B,,2D,2 | 
[V:1] F2EDE4 | 
[V:2] G4z4 | 
[V:3] c8 | 
[V:4] z2G2G2G2 | 
[V:5] C,2B,,2C,4 | 
[V:1] F4z4 | 
[V:2] z2f3ed2- | 
[V:3] d8 | 
[V:4] B3AG2F2 | 
[V:5] B,,8 | 
[V:1] z2G2G2G2 | 
[V:2] d2cBc4 | 
[V:3] G8- | 
[V:4] _E3D_E4 | 
[V:5] z8 | 
[V:1] B6B2 | 
[V:2] z2d3cB2- | 
[V:3] G8 | 
[V:4] D4z4 | 
[V:5] G,,4G,,2G,,2 | 
[V:1] B2B2A4 | 
[V:2] B2AGF3G | 
[V:3] d8 | 
[V:4] z2D2D2D2 | 
[V:5] B,,4z4 | 
[V:1] A2c3BAG | 
[V:2] A4z4 | 
[V:3] c8 | 
[V:4] F4z2A2 | 
[V:5] z2F,2F,2F,2 | 
[V:1] F4z4 | 
[V:2] z2F2F3G | 
[V:3] d8 | 
[V:4] A2A2B2B2 | 
[V:5] D,2D,2B,,C,D,E, | 
[V:1] z8 | 
[V:2] A2B2G4 | 
[V:3] z8 | 
[V:4] A2d4^c2 | 
[V:5] F,2G,2E,4 | 
[V:1] z4F4 | 
[V:2] A8 | 
[V:3] D8- | 
[V:4] d8 | 
[V:5] D,4z4 | 
[V:1] F4D4 | 
[V:2] z8 | 
[V:3] D8 | 
[V:4] A4B4 | 
[V:5] z8 | 
[V:1] G4z4 | 
[V:2] z2G2A4 | 
[V:3] E8 | 
[V:4] G4c4 | 
[V:5] z4A,,4 | 
[V:1] z8 | 
[V:2] F4B4 | 
[V:3] D4G4- | 
[V:4] z2d2d2d2 | 
[V:5] B,,4G,,4 | 
[V:1] z4F4 | 
[V:2] z4z2A2 | 
[V:3] G4F4 | 
[V:4] c3BA4 | 
[V:5] C,3C,D,D,3 | 
[V:1] D2D2G4 | 
[V:2] B4G4 | 
[V:3] G4B4 | 
[V:4] G4z2E2- | 
[V:5] G,,8 | 
[V:1] z4F4 | 
[V:2] c4z2B2 | 
[V:3] A4d4- | 
[V:4] E2F4D2- | 
[V:5] A,,4B,,4 | 
[V:1] G4E2G2- | 
[V:2] B4G4 | 
[V:3] d4c4 | 
[V:4] D2G3FED | 
[V:5] G,,4C,4 | 
[V:1] GFEDC2c2 | 
[V:2] c3BA2G2 | 
[V:3] e8 | 
[V:4] C4z2C2 | 
[V:5] z4C,4 | 
[V:1] B2A4G2- | 
[V:2] F2f4ed | 
[V:3] d4c2B2 | 
[V:4] F3GA2B2 | 
[V:5] D,3E,F,2G,2 | 
[V:1] G2FEF4 | 
[V:2] e4d2A2 | 
[V:3] A8 | 
[V:4] c4F4 | 
[V:5] C,4D,4 | 
[V:1] G8- | 
[V:2] d2d2_ed_ef | 
[V:3] G8- | 
[V:4] z4c4- | 
[V:5] z2G,,2C,3D, | 
[V:1] G8- | 
[V:2] g2f_ed2d2 | 
[V:3] G8- | 
[V:4] c4B4 | 
[V:5] _E,2F,2G,4 | 
[V:1] G8- | 
[V:2] _e6dc | 
[V:3] G8- | 
[V:4] c8 | 
[V:5] C,6B,,A,, | 
[V:1] G8 |]  
[V:2] d8 |]  
[V:3] G8 |]  
[V:4] B8 |]  
[V:5] G,,8 |]  



